X:323
T:Honest Duncan
R:Slow Strathspey
C:Duncan MacIntyre
B:The Athole Collection
M:C
L:1/8
Q:1/4=140
K:B_
d/c/|~Bd|~BB FD|
CC D>F G2 Gd/c/|~B<B,B D/E/ F/E/D/C/ Bd/c/|~B<B,B D/E/ ~F2 Fd/c/|
~B>FB>d ~B>F G/F/E/D/|CC E>F G2G||d/c/|~B>F e/d/c/B/ F>BD>B|
B,>f e/d/c/B/ g2 ga/b/|B>c B<f d>c ~B>B,|CC E>F G2 Gd/c/|
~B>f e/d/c/B/ F>BD>B|B,>f e/d/c/B/ g2 ga/b/|f>b d>f B>d D>B|
CC E>F G2G||
